X:22
T: Winterrosen
N: Q0145
O: Mitteleuropa, Deutschland (DDR) , Brandenburg a.d. Havel
N: Dritte Zeile = Refrain auf sinnfreie Silben.
R: Ballade, Verfuehrung, verlorene Ehre
M: 4/4
L: 1/4
K: Bb
F | BFDF | BBB
B | cBAG | GFFz |
DEFz | FFB
B | cdeF | FBB

@@@ Tune index: 1625
